exports/population-growth-rates_v1_850x600.svg

<svg xmlns="http://www.w3.org/2000/svg" version="1.1" style="background-color:#fff;-webkit-font-smoothing:antialiased" width="850" height="600" font-family="'Helvetica Neue',Helvetica,Arial,sans-serif" font-size="18" text-rendering="optimizeLegibility"><g class="ChartTab"><g class="HeaderView"><g opacity=".8" transform="matrix(.31 0 0 .31 770 15)"><a xmlns:xlink="http://www.w3.org/1999/xlink" xlink:href="https://ourworldindata.org" target="_blank"><g><path fill="#1B2543" d="M0 0h211.2v130.1H0z"/><path fill="#E63912" d="M0 112.2h211.2v17.9H0z"/><g><path fill="none" d="M1.2 12.3h210.2v99.2H1.2z"/><path fill="#FFF" d="M37.8 32.2c0 12.7-7.7 19.4-17.1 19.4-9.7 0-16.6-7.5-16.6-18.7 0-11.7 7.3-19.3 17.1-19.3 10.1.1 16.6 7.7 16.6 18.6zm-28.6.6c0 7.9 4.3 14.9 11.8 14.9 7.5 0 11.8-6.9 11.8-15.3 0-7.3-3.8-14.9-11.8-14.9-7.9 0-11.8 7.3-11.8 15.3zM62.7 43.8c0 2.7.1 5.1.2 7.2h-4.3l-.3-4.3h-.1c-1.3 2.1-4 4.9-8.8 4.9-4.2 0-9.1-2.3-9.1-11.6V24.6h4.8v14.6c0 5 1.5 8.4 5.9 8.4 3.2 0 5.5-2.2 6.3-4.4.3-.7.4-1.6.4-2.5V24.6h4.8v19.2zM67.3 32.8c0-3.1-.1-5.8-.2-8.2h4.2l.2 5.2h.2c1.2-3.5 4.1-5.8 7.3-5.8.5 0 .9.1 1.4.2v4.5c-.5-.1-1-.2-1.6-.2-3.4 0-5.8 2.6-6.5 6.2-.1.7-.2 1.4-.2 2.2V51h-4.8V32.8zM95.4 51L86 14.2h5l4.4 18.6c1.1 4.6 2.1 9.2 2.7 12.7h.1c.6-3.7 1.8-8 3-12.8l4.9-18.5h5l4.5 18.7c1 4.4 2 8.7 2.6 12.6h.1c.8-4 1.8-8.1 3-12.7l4.9-18.5h4.9L120.6 51h-5L111 31.9c-1.1-4.7-1.9-8.3-2.4-12h-.1c-.7 3.7-1.5 7.3-2.8 12L100.4 51h-5zM154.9 37.6c0 9.8-6.8 14-13.2 14-7.2 0-12.7-5.2-12.7-13.6 0-8.8 5.8-14 13.1-14 7.7 0 12.8 5.5 12.8 13.6zm-21 .3c0 5.8 3.3 10.1 8 10.1 4.6 0 8-4.3 8-10.3 0-4.5-2.2-10.1-7.9-10.1s-8.1 5.2-8.1 10.3zM158.2 32.8c0-3.1-.1-5.8-.2-8.2h4.2l.2 5.2h.2c1.2-3.5 4.1-5.8 7.3-5.8.5 0 .9.1 1.4.2v4.5c-.5-.1-1-.2-1.6-.2-3.4 0-5.8 2.6-6.5 6.2-.1.7-.2 1.4-.2 2.2V51h-4.8V32.8zM173.5 12.3h4.8V51h-4.8V12.3zM206.5 12.3v31.9c0 2.3.1 5 .2 6.8h-4.3l-.2-4.6h-.2c-1.5 2.9-4.7 5.2-9 5.2-6.4 0-11.3-5.4-11.3-13.4-.1-8.8 5.4-14.2 11.9-14.2 4 0 6.8 1.9 8 4h.1V12.3h4.8zm-4.8 23.1c0-.6-.1-1.4-.2-2a7 7 0 00-6.9-5.6c-5 0-7.9 4.4-7.9 10.2 0 5.3 2.6 9.8 7.8 9.8 3.2 0 6.2-2.1 7.1-5.7.2-.7.2-1.3.2-2.1v-4.6zM42.8 64c.1 1.6-1.1 2.9-3.1 2.9-1.7 0-2.9-1.3-2.9-2.9 0-1.7 1.3-3 3-3 1.9 0 3 1.3 3 3zm-5.4 33.8V71.4h4.8v26.4h-4.8zM47.5 78.6c0-2.7-.1-5-.2-7.1h4.3l.3 4.4h.1c1.3-2.5 4.4-5 8.8-5 3.7 0 9.4 2.2 9.4 11.2v15.8h-4.8V82.6c0-4.3-1.6-7.8-6.1-7.8-3.2 0-5.6 2.2-6.5 4.9-.2.6-.3 1.4-.3 2.2v15.9h-4.8V78.6zM84 61.6c2.9-.4 6.3-.8 10.1-.8 6.8 0 11.7 1.6 14.9 4.6 3.3 3 5.2 7.3 5.2 13.2 0 6-1.9 10.9-5.3 14.3-3.4 3.4-9.1 5.3-16.3 5.3-3.4 0-6.2-.2-8.6-.4V61.6zm4.8 32.5c1.2.2 3 .3 4.8.3 10.2 0 15.7-5.7 15.7-15.6.1-8.7-4.9-14.2-14.9-14.2-2.5 0-4.3.2-5.6.5v29zM132.1 97.8l-.4-3.3h-.2a9.79 9.79 0 01-8.1 3.9c-5.4 0-8.1-3.8-8.1-7.6 0-6.4 5.7-9.9 15.9-9.8v-.5c0-2.2-.6-6.1-6-6.1-2.5 0-5 .8-6.9 2l-1.1-3.2c2.2-1.4 5.4-2.3 8.7-2.3 8.1 0 10.1 5.5 10.1 10.8v9.9c0 2.3.1 4.5.4 6.3h-4.3zm-.7-13.4c-5.3-.1-11.2.8-11.2 5.9 0 3.1 2.1 4.6 4.5 4.6 3.4 0 5.6-2.2 6.4-4.4.2-.5.3-1 .3-1.5v-4.6zM146.6 63.9v7.6h6.9v3.7h-6.9v14.2c0 3.3.9 5.1 3.6 5.1 1.3 0 2.2-.2 2.8-.3l.2 3.6c-.9.4-2.4.7-4.3.7-2.2 0-4-.7-5.2-2-1.4-1.4-1.9-3.8-1.9-6.9V75.1h-4.1v-3.7h4.1v-6.3l4.8-1.2zM171.4 97.8l-.4-3.3h-.2a9.79 9.79 0 01-8.1 3.9c-5.4 0-8.1-3.8-8.1-7.6 0-6.4 5.7-9.9 15.9-9.8v-.5c0-2.2-.6-6.1-6-6.1-2.5 0-5 .8-6.9 2l-1.1-3.2c2.2-1.4 5.4-2.3 8.7-2.3 8.1 0 10.1 5.5 10.1 10.8v9.9c0 2.3.1 4.5.4 6.3h-4.3zm-.7-13.4c-5.3-.1-11.2.8-11.2 5.9 0 3.1 2.1 4.6 4.5 4.6 3.4 0 5.6-2.2 6.4-4.4.2-.5.3-1 .3-1.5v-4.6z"/></g></g></a></g><a href="https://ourworldindata.org/grapher/population-growth-rates" target="_blank"><text font-size="27" x="15" y="36.6" fill="#555"><tspan x="15" y="36.6">Population growth rate</tspan></text></a><text font-size="14.4" x="15" y="55.5" fill="#666"><tspan x="15" y="55.52">Average annual rate of population change (including the UN&apos;s &apos;Medium variant&apos; projections until 2100)</tspan></text></g><g class="LineChart"><defs><clipPath id="a"><path d="M47.1 0h830v956.2h-830z"/></clipPath></defs><g class="AxisBoxView"><g class="HorizontalAxis" fill="#666" text-anchor="middle" font-size="16.2"><text x="57.1" y="556.5">1950</text><text x="159.6" y="556.5">1980</text><text x="227.9" y="556.5">2000</text><text x="296.3" y="556.5">2020</text><text x="364.6" y="556.5">2040</text><text x="433" y="556.5">2060</text><text x="501.3" y="556.5">2080</text><text x="566.2" y="556.5">2099</text></g><g class="VerticalAxis" fill="#666" dominant-baseline="middle" text-anchor="end" font-size="16.2"><text x="52.1" y="535.3">0%</text><text x="52.1" y="424.8">0.5%</text><text x="52.1" y="314.3">1%</text><text x="52.1" y="203.7">1.5%</text><text x="52.1" y="93.2">2%</text></g><g class="AxisGridLines"><path stroke="#ccc" d="M57.1 535.3h509.11"/><path stroke="#ddd" stroke-dasharray="3,2" d="M57.1 424.8h509.11M57.1 314.3h509.11M57.1 203.7h509.11M57.1 93.2h509.11"/></g><g class="AxisGridLines" stroke="#ddd" stroke-dasharray="3,2"><path d="M91.3 535.3V78.4M159.6 535.3V78.4M227.9 535.3V78.4M296.3 535.3V78.4M364.6 535.3V78.4M433 535.3V78.4M501.3 535.3V78.4"/></g></g><g clip-path="url(#a)"><g class="HeightedLegend clickable"><g class="legendMark"><path fill="#3360a9" d="M576.21 513.25h10v2.5h-10z"/><text font-size="14.4" x="591.2" y="503.3" fill="#333"><tspan x="591.21" y="503.32">World - Medium fertility variant, 2015 -</tspan><tspan x="591.21" y="519.16">2099: Demographic Indicators -</tspan><tspan x="591.21" y="535">Population growth rate (percentage)</tspan></text></g></g><g class="Lines"><g class="key-World_0"><path stroke="#ca2628" stroke-linecap="round" d="M57 125l4 7 3 11 3 6 4 1 3-2 4-3 3-5 3-5 4-5 3-4 4-6 3-6 4-7 3-8 3-8 4-8 3-4 4-1 3 4 3 6 4 5 3 7 4 8 3 9 4 10 3 9 3 7 4 4h3l4-1 3-1 3-1 4-3 3-3 4-4 3-4 4 1 3 7 3 13 4 15 3 15 4 14 3 12 3 10 4 8 3 9 4 7 3 6 4 4 3 3 3 2 4 2 3 1 4 1 3 1h3l4 1 3 1 4 2 3 2 4 2 3 2 3 4 4 3 3 5" fill="none" stroke-width="1.5"/><g fill="#ca2628"><circle cx="57" cy="125" r="2"/><circle cx="61" cy="132" r="2"/><circle cx="64" cy="143" r="2"/><circle cx="67" cy="149" r="2"/><circle cx="71" cy="150" r="2"/><circle cx="74" cy="148" r="2"/><circle cx="78" cy="145" r="2"/><circle cx="81" cy="140" r="2"/><circle cx="84" cy="135" r="2"/><circle cx="88" cy="130" r="2"/><circle cx="91" cy="126" r="2"/><circle cx="95" cy="120" r="2"/><circle cx="98" cy="114" r="2"/><circle cx="102" cy="107" r="2"/><circle cx="105" cy="99" r="2"/><circle cx="108" cy="91" r="2"/><circle cx="112" cy="83" r="2"/><circle cx="115" cy="79" r="2"/><circle cx="119" cy="78" r="2"/><circle cx="122" cy="82" r="2"/><circle cx="125" cy="88" r="2"/><circle cx="129" cy="93" r="2"/><circle cx="132" cy="100" r="2"/><circle cx="136" cy="108" r="2"/><circle cx="139" cy="117" r="2"/><circle cx="143" cy="127" r="2"/><circle cx="146" cy="136" r="2"/><circle cx="149" cy="143" r="2"/><circle cx="153" cy="147" r="2"/><circle cx="156" cy="147" r="2"/><circle cx="160" cy="146" r="2"/><circle cx="163" cy="145" r="2"/><circle cx="166" cy="144" r="2"/><circle cx="170" cy="141" r="2"/><circle cx="173" cy="138" r="2"/><circle cx="177" cy="134" r="2"/><circle cx="180" cy="130" r="2"/><circle cx="184" cy="131" r="2"/><circle cx="187" cy="138" r="2"/><circle cx="190" cy="151" r="2"/><circle cx="194" cy="166" r="2"/><circle cx="197" cy="181" r="2"/><circle cx="201" cy="195" r="2"/><circle cx="204" cy="207" r="2"/><circle cx="207" cy="217" r="2"/><circle cx="211" cy="225" r="2"/><circle cx="214" cy="234" r="2"/><circle cx="218" cy="241" r="2"/><circle cx="221" cy="247" r="2"/><circle cx="225" cy="251" r="2"/><circle cx="228" cy="254" r="2"/><circle cx="231" cy="256" r="2"/><circle cx="235" cy="258" r="2"/><circle cx="238" cy="259" r="2"/><circle cx="242" cy="260" r="2"/><circle cx="245" cy="261" r="2"/><circle cx="248" cy="261" r="2"/><circle cx="252" cy="262" r="2"/><circle cx="255" cy="263" r="2"/><circle cx="259" cy="265" r="2"/><circle cx="262" cy="267" r="2"/><circle cx="266" cy="269" r="2"/><circle cx="269" cy="271" r="2"/><circle cx="272" cy="275" r="2"/><circle cx="276" cy="278" r="2"/><circle cx="279" cy="283" r="2"/></g></g><g class="key-World_1"><path stroke="#3360a9" stroke-linecap="round" d="M279 283l4 5 3 5 3 5 4 4 3 5 4 5 3 5 4 5 3 5 3 4 4 5 3 4 4 4 3 5 3 4 4 4 3 4 4 3 3 4 4 4 3 3 3 4 4 3 3 3 4 4 3 3 3 3 4 3 3 3 4 3 3 4 4 3 3 3 3 3 4 4 3 3 4 3 3 3 3 3 4 3 3 3 4 3 3 3 4 2 3 2 3 3 4 2 3 2 4 2 3 2 4 2 3 2 3 2 4 2 3 2 4 2 3 2 3 2 4 1 3 2 4 2 3 2 4 1 3 2 3 1 4 2 3 1 4 2 3 1 3 2 4 1 3 2 4 1 3 1 4 2 3 1 3 1 4 2 3 1 4 2 3 1 3 1 4 2 3 2" fill="none" stroke-width="1.5" stroke-dasharray="1,4"/></g></g></g></g><g class="SourcesFooter" fill="#777"><g class="clickable" fill="#777"><text font-size="12.6" x="15" y="581.6"><tspan x="15" y="581.58">Source: UN Population Division (2017 Revision)</tspan></text></g><text font-size="12.6" x="507.1" y="581.6"><tspan x="507.15" y="581.58"><a target="_blank" href="https://ourworldindata.org/world-population-growth/" fill="#777">OurWorldInData.org/world-population-growth/</a> • <a href="http://creativecommons.org/licenses/by-sa/4.0/deed.en_US" target="_blank" fill="#777">CC BY-SA</a></tspan></text></g></g></svg>

<svg xmlns="http://www.w3.org/2000/svg" version="1.1" style="font-family: 'Helvetica Neue', Helvetica, Arial, sans-serif; font-size: 18px; background-color: white; text-rendering: optimizeLegibility; -webkit-font-smoothing: antialiased;" width="850" height="600"><g class="ChartTab"><g class="HeaderView"><g opacity="0.8" transform="translate(770, 15) scale(0.31)"><a xmlns:xlink="http://www.w3.org/1999/xlink" xlink:href="https://ourworldindata.org" target="_blank"><g><rect x="0" y="0" fill="#1B2543" width="211.2" height="130.1"/><rect x="0" y="112.2" fill="#E63912" width="211.2" height="17.9"/><g><rect x="1.2" y="12.3" fill="none" width="210.2" height="99.2"/><path fill="#FFFFFF" d="M37.8,32.2c0,12.7-7.7,19.4-17.1,19.4c-9.7,0-16.6-7.5-16.6-18.7c0-11.7,7.3-19.3,17.1-19.3 C31.3,13.7,37.8,21.3,37.8,32.2z M9.2,32.8c0,7.9,4.3,14.9,11.8,14.9c7.5,0,11.8-6.9,11.8-15.3c0-7.3-3.8-14.9-11.8-14.9 C13.1,17.5,9.2,24.8,9.2,32.8z"/><path fill="#FFFFFF" d="M62.7,43.8c0,2.7,0.1,5.1,0.2,7.2h-4.3l-0.3-4.3h-0.1c-1.3,2.1-4,4.9-8.8,4.9c-4.2,0-9.1-2.3-9.1-11.6 V24.6h4.8v14.6c0,5,1.5,8.4,5.9,8.4c3.2,0,5.5-2.2,6.3-4.4c0.3-0.7,0.4-1.6,0.4-2.5V24.6h4.8V43.8z"/><path fill="#FFFFFF" d="M67.3,32.8c0-3.1-0.1-5.8-0.2-8.2h4.2l0.2,5.2h0.2c1.2-3.5,4.1-5.8,7.3-5.8c0.5,0,0.9,0.1,1.4,0.2v4.5 c-0.5-0.1-1-0.2-1.6-0.2c-3.4,0-5.8,2.6-6.5,6.2c-0.1,0.7-0.2,1.4-0.2,2.2V51h-4.8V32.8z"/><path fill="#FFFFFF" d="M95.4,51l-9.4-36.8h5l4.4,18.6c1.1,4.6,2.1,9.2,2.7,12.7h0.1c0.6-3.7,1.8-8,3-12.8l4.9-18.5h5l4.5,18.7 c1,4.4,2,8.7,2.6,12.6h0.1c0.8-4,1.8-8.1,3-12.7l4.9-18.5h4.9L120.6,51h-5L111,31.9c-1.1-4.7-1.9-8.3-2.4-12h-0.1 c-0.7,3.7-1.5,7.3-2.8,12L100.4,51H95.4z"/><path fill="#FFFFFF" d="M154.9,37.6c0,9.8-6.8,14-13.2,14c-7.2,0-12.7-5.2-12.7-13.6c0-8.8,5.8-14,13.1-14 C149.8,24,154.9,29.5,154.9,37.6z M133.9,37.9c0,5.8,3.3,10.1,8,10.1c4.6,0,8-4.3,8-10.3c0-4.5-2.2-10.1-7.9-10.1 C136.3,27.6,133.9,32.8,133.9,37.9z"/><path fill="#FFFFFF" d="M158.2,32.8c0-3.1-0.1-5.8-0.2-8.2h4.2l0.2,5.2h0.2c1.2-3.5,4.1-5.8,7.3-5.8c0.5,0,0.9,0.1,1.4,0.2v4.5 c-0.5-0.1-1-0.2-1.6-0.2c-3.4,0-5.8,2.6-6.5,6.2c-0.1,0.7-0.2,1.4-0.2,2.2V51h-4.8V32.8z"/><path fill="#FFFFFF" d="M173.5,12.3h4.8V51h-4.8V12.3z"/><path fill="#FFFFFF" d="M206.5,12.3v31.9c0,2.3,0.1,5,0.2,6.8h-4.3l-0.2-4.6H202c-1.5,2.9-4.7,5.2-9,5.2 c-6.4,0-11.3-5.4-11.3-13.4c-0.1-8.8,5.4-14.2,11.9-14.2c4,0,6.8,1.9,8,4h0.1V12.3H206.5z M201.7,35.4c0-0.6-0.1-1.4-0.2-2 c-0.7-3.1-3.3-5.6-6.9-5.6c-5,0-7.9,4.4-7.9,10.2c0,5.3,2.6,9.8,7.8,9.8c3.2,0,6.2-2.1,7.1-5.7c0.2-0.7,0.2-1.3,0.2-2.1V35.4z"/><path fill="#FFFFFF" d="M42.8,64c0.1,1.6-1.1,2.9-3.1,2.9c-1.7,0-2.9-1.3-2.9-2.9c0-1.7,1.3-3,3-3C41.7,61,42.8,62.3,42.8,64z M37.4,97.8V71.4h4.8v26.4H37.4z"/><path fill="#FFFFFF" d="M47.5,78.6c0-2.7-0.1-5-0.2-7.1h4.3l0.3,4.4h0.1c1.3-2.5,4.4-5,8.8-5c3.7,0,9.4,2.2,9.4,11.2v15.8h-4.8 V82.6c0-4.3-1.6-7.8-6.1-7.8c-3.2,0-5.6,2.2-6.5,4.9c-0.2,0.6-0.3,1.4-0.3,2.2v15.9h-4.8V78.6z"/><path fill="#FFFFFF" d="M84,61.6c2.9-0.4,6.3-0.8,10.1-0.8c6.8,0,11.7,1.6,14.9,4.6c3.3,3,5.2,7.3,5.2,13.2c0,6-1.9,10.9-5.3,14.3 c-3.4,3.4-9.1,5.3-16.3,5.3c-3.4,0-6.2-0.2-8.6-0.4V61.6z M88.8,94.1c1.2,0.2,3,0.3,4.8,0.3c10.2,0,15.7-5.7,15.7-15.6 c0.1-8.7-4.9-14.2-14.9-14.2c-2.5,0-4.3,0.2-5.6,0.5V94.1z"/><path fill="#FFFFFF" d="M132.1,97.8l-0.4-3.3h-0.2c-1.5,2.1-4.3,3.9-8.1,3.9c-5.4,0-8.1-3.8-8.1-7.6c0-6.4,5.7-9.9,15.9-9.8v-0.5 c0-2.2-0.6-6.1-6-6.1c-2.5,0-5,0.8-6.9,2l-1.1-3.2c2.2-1.4,5.4-2.3,8.7-2.3c8.1,0,10.1,5.5,10.1,10.8v9.9c0,2.3,0.1,4.5,0.4,6.3 H132.1z M131.4,84.4c-5.3-0.1-11.2,0.8-11.2,5.9c0,3.1,2.1,4.6,4.5,4.6c3.4,0,5.6-2.2,6.4-4.4c0.2-0.5,0.3-1,0.3-1.5V84.4z"/><path fill="#FFFFFF" d="M146.6,63.9v7.6h6.9v3.7h-6.9v14.2c0,3.3,0.9,5.1,3.6,5.1c1.3,0,2.2-0.2,2.8-0.3l0.2,3.6 c-0.9,0.4-2.4,0.7-4.3,0.7c-2.2,0-4-0.7-5.2-2c-1.4-1.4-1.9-3.8-1.9-6.9V75.1h-4.1v-3.7h4.1v-6.3L146.6,63.9z"/><path fill="#FFFFFF" d="M171.4,97.8l-0.4-3.3h-0.2c-1.5,2.1-4.3,3.9-8.1,3.9c-5.4,0-8.1-3.8-8.1-7.6c0-6.4,5.7-9.9,15.9-9.8v-0.5 c0-2.2-0.6-6.1-6-6.1c-2.5,0-5,0.8-6.9,2l-1.1-3.2c2.2-1.4,5.4-2.3,8.7-2.3c8.1,0,10.1,5.5,10.1,10.8v9.9c0,2.3,0.1,4.5,0.4,6.3 H171.4z M170.7,84.4c-5.3-0.1-11.2,0.8-11.2,5.9c0,3.1,2.1,4.6,4.5,4.6c3.4,0,5.6-2.2,6.4-4.4c0.2-0.5,0.3-1,0.3-1.5V84.4z"/></g></g></a></g><a href="https://ourworldindata.org/grapher/population-growth-rates" target="_blank"><text font-size="27.00" x="15.0" y="36.6" fill="#555"><tspan x="15" y="36.6">Population growth rate</tspan></text></a><text font-size="14.40" x="15.0" y="55.5" fill="#666"><tspan x="15" y="55.519999999999996">Average annual rate of population change (including the UN's 'Medium variant' projections until 2100)</tspan></text></g><g class="LineChart"><defs><clipPath id="boundsClip-37"><rect x="47.098" y="0" width="830" height="956.2"></rect></clipPath></defs><g class="AxisBoxView"><g class="HorizontalAxis"><text x="57.1" y="556.5" fill="#666" text-anchor="middle" font-size="16.2">1950</text><text x="159.6" y="556.5" fill="#666" text-anchor="middle" font-size="16.2">1980</text><text x="227.9" y="556.5" fill="#666" text-anchor="middle" font-size="16.2">2000</text><text x="296.3" y="556.5" fill="#666" text-anchor="middle" font-size="16.2">2020</text><text x="364.6" y="556.5" fill="#666" text-anchor="middle" font-size="16.2">2040</text><text x="433" y="556.5" fill="#666" text-anchor="middle" font-size="16.2">2060</text><text x="501.3" y="556.5" fill="#666" text-anchor="middle" font-size="16.2">2080</text><text x="566.2" y="556.5" fill="#666" text-anchor="middle" font-size="16.2">2099</text></g><g class="VerticalAxis"><text x="52.10" y="535.3" fill="#666" dominant-baseline="middle" text-anchor="end" font-size="16.2">0%</text><text x="52.10" y="424.8" fill="#666" dominant-baseline="middle" text-anchor="end" font-size="16.2">0.5%</text><text x="52.10" y="314.3" fill="#666" dominant-baseline="middle" text-anchor="end" font-size="16.2">1%</text><text x="52.10" y="203.7" fill="#666" dominant-baseline="middle" text-anchor="end" font-size="16.2">1.5%</text><text x="52.10" y="93.2" fill="#666" dominant-baseline="middle" text-anchor="end" font-size="16.2">2%</text></g><g class="AxisGridLines"><line x1="57.10" y1="535.3" x2="566.21" y2="535.3" stroke="#ccc"></line><line x1="57.10" y1="424.8" x2="566.21" y2="424.8" stroke="#ddd" stroke-dasharray="3,2"></line><line x1="57.10" y1="314.3" x2="566.21" y2="314.3" stroke="#ddd" stroke-dasharray="3,2"></line><line x1="57.10" y1="203.7" x2="566.21" y2="203.7" stroke="#ddd" stroke-dasharray="3,2"></line><line x1="57.10" y1="93.2" x2="566.21" y2="93.2" stroke="#ddd" stroke-dasharray="3,2"></line></g><g class="AxisGridLines"><line x1="91.3" y1="535.30" x2="91.3" y2="78.40" stroke="#ddd" stroke-dasharray="3,2"></line><line x1="159.6" y1="535.30" x2="159.6" y2="78.40" stroke="#ddd" stroke-dasharray="3,2"></line><line x1="227.9" y1="535.30" x2="227.9" y2="78.40" stroke="#ddd" stroke-dasharray="3,2"></line><line x1="296.3" y1="535.30" x2="296.3" y2="78.40" stroke="#ddd" stroke-dasharray="3,2"></line><line x1="364.6" y1="535.30" x2="364.6" y2="78.40" stroke="#ddd" stroke-dasharray="3,2"></line><line x1="433" y1="535.30" x2="433" y2="78.40" stroke="#ddd" stroke-dasharray="3,2"></line><line x1="501.3" y1="535.30" x2="501.3" y2="78.40" stroke="#ddd" stroke-dasharray="3,2"></line></g></g><g clip-path="url(#boundsClip-37)"><g class="HeightedLegend clickable"><g class="legendMark"><rect x="576.208" y="491.8" width="258.79200000000003" height="45.400000000000006" fill="#fff" opacity="0"></rect><rect x="576.208" y="513.25" width="10" height="2.5" fill="#3360a9"></rect><text font-size="14.40" x="591.2" y="503.3" fill="#333"><tspan x="591.208" y="503.32">World - Medium fertility variant, 2015 -</tspan><tspan x="591.208" y="519.16">2099: Demographic Indicators -</tspan><tspan x="591.208" y="535">Population growth rate (percentage)</tspan></text></g></g><g class="Lines"><rect x="57" y="78" width="509" height="457" fill="rgba(255,255,255,0)" opacity="0"></rect><g class="key-World_0"><path stroke="#ca2628" stroke-linecap="round" d="M57 125L61 132L64 143L67 149L71 150L74 148L78 145L81 140L84 135L88 130L91 126L95 120L98 114L102 107L105 99L108 91L112 83L115 79L119 78L122 82L125 88L129 93L132 100L136 108L139 117L143 127L146 136L149 143L153 147L156 147L160 146L163 145L166 144L170 141L173 138L177 134L180 130L184 131L187 138L190 151L194 166L197 181L201 195L204 207L207 217L211 225L214 234L218 241L221 247L225 251L228 254L231 256L235 258L238 259L242 260L245 261L248 261L252 262L255 263L259 265L262 267L266 269L269 271L272 275L276 278L279 283" fill="none" stroke-width="1.5"></path><g fill="#ca2628"><circle cx="57" cy="125" r="2"></circle><circle cx="61" cy="132" r="2"></circle><circle cx="64" cy="143" r="2"></circle><circle cx="67" cy="149" r="2"></circle><circle cx="71" cy="150" r="2"></circle><circle cx="74" cy="148" r="2"></circle><circle cx="78" cy="145" r="2"></circle><circle cx="81" cy="140" r="2"></circle><circle cx="84" cy="135" r="2"></circle><circle cx="88" cy="130" r="2"></circle><circle cx="91" cy="126" r="2"></circle><circle cx="95" cy="120" r="2"></circle><circle cx="98" cy="114" r="2"></circle><circle cx="102" cy="107" r="2"></circle><circle cx="105" cy="99" r="2"></circle><circle cx="108" cy="91" r="2"></circle><circle cx="112" cy="83" r="2"></circle><circle cx="115" cy="79" r="2"></circle><circle cx="119" cy="78" r="2"></circle><circle cx="122" cy="82" r="2"></circle><circle cx="125" cy="88" r="2"></circle><circle cx="129" cy="93" r="2"></circle><circle cx="132" cy="100" r="2"></circle><circle cx="136" cy="108" r="2"></circle><circle cx="139" cy="117" r="2"></circle><circle cx="143" cy="127" r="2"></circle><circle cx="146" cy="136" r="2"></circle><circle cx="149" cy="143" r="2"></circle><circle cx="153" cy="147" r="2"></circle><circle cx="156" cy="147" r="2"></circle><circle cx="160" cy="146" r="2"></circle><circle cx="163" cy="145" r="2"></circle><circle cx="166" cy="144" r="2"></circle><circle cx="170" cy="141" r="2"></circle><circle cx="173" cy="138" r="2"></circle><circle cx="177" cy="134" r="2"></circle><circle cx="180" cy="130" r="2"></circle><circle cx="184" cy="131" r="2"></circle><circle cx="187" cy="138" r="2"></circle><circle cx="190" cy="151" r="2"></circle><circle cx="194" cy="166" r="2"></circle><circle cx="197" cy="181" r="2"></circle><circle cx="201" cy="195" r="2"></circle><circle cx="204" cy="207" r="2"></circle><circle cx="207" cy="217" r="2"></circle><circle cx="211" cy="225" r="2"></circle><circle cx="214" cy="234" r="2"></circle><circle cx="218" cy="241" r="2"></circle><circle cx="221" cy="247" r="2"></circle><circle cx="225" cy="251" r="2"></circle><circle cx="228" cy="254" r="2"></circle><circle cx="231" cy="256" r="2"></circle><circle cx="235" cy="258" r="2"></circle><circle cx="238" cy="259" r="2"></circle><circle cx="242" cy="260" r="2"></circle><circle cx="245" cy="261" r="2"></circle><circle cx="248" cy="261" r="2"></circle><circle cx="252" cy="262" r="2"></circle><circle cx="255" cy="263" r="2"></circle><circle cx="259" cy="265" r="2"></circle><circle cx="262" cy="267" r="2"></circle><circle cx="266" cy="269" r="2"></circle><circle cx="269" cy="271" r="2"></circle><circle cx="272" cy="275" r="2"></circle><circle cx="276" cy="278" r="2"></circle><circle cx="279" cy="283" r="2"></circle></g></g><g class="key-World_1"><path stroke="#3360a9" stroke-linecap="round" d="M279 283L283 288L286 293L289 298L293 302L296 307L300 312L303 317L307 322L310 327L313 331L317 336L320 340L324 344L327 349L330 353L334 357L337 361L341 364L344 368L348 372L351 375L354 379L358 382L361 385L365 389L368 392L371 395L375 398L378 401L382 404L385 408L389 411L392 414L395 417L399 421L402 424L406 427L409 430L412 433L416 436L419 439L423 442L426 445L430 447L433 449L436 452L440 454L443 456L447 458L450 460L454 462L457 464L460 466L464 468L467 470L471 472L474 474L477 476L481 477L484 479L488 481L491 483L495 484L498 486L501 487L505 489L508 490L512 492L515 493L518 495L522 496L525 498L529 499L532 500L536 502L539 503L542 504L546 506L549 507L553 509L556 510L559 511L563 513L566 515" fill="none" stroke-width="1.5" stroke-dasharray="1,4"></path></g></g></g></g><g style="fill: #777;" class="SourcesFooter"><g style="fill: #777;" class="clickable"><text font-size="12.60" x="15.0" y="581.6"><tspan x="15" y="581.58">Source: UN Population Division (2017 Revision)</tspan></text></g><text font-size="12.60" x="507.1" y="581.6"><tspan x="507.148" y="581.58"><a target='_blank' style='fill: #777;' href='https://ourworldindata.org/world-population-growth/'>OurWorldInData.org/world-population-growth/</a> • <a style="fill: #777;" href="http://creativecommons.org/licenses/by-sa/4.0/deed.en_US" target="_blank">CC BY-SA</a></tspan></text></g></g></svg>
